X: 06082
T: ROBIN'S REEL
C: Bob McQuillen 28 July 82
B: Bob's Note Book 6 #82
%R: reel
Z: 2021 John Chambers <jc:trillian.mit.edu>
M: C
L: 1/8
K: Em
dc \
| BAGB deGB | AGED E2GA | BGBe dega | b2gb ageg |\
| dedB ABGA | Bdeg a2ga | bgeg dBed | B2e2 e2 :|
|: ef \
| g2ge dBge | dedB egba | gegb ageg | aged e2ge |\
| dedB ABde | gedB AGBd | edge dBAB | G2E2 E2 :|
%%begintext align
%% Robin Blecher is
%% always so nice to me when I get down
%% Cambridge way - She and her Mom sure
%% make me feel welcome -
%% Thanks, Robin -
%%endtext

%%sep 1 1 500

%%sep 1 1 500

